X:34
T: Ideki a kertbe
O: Trunk (Bákó), 1929
Q: 1/4=144
M:2/4
L:1/4
K:Eb
G/_A/B/B/ | c<B | 
B/A/G/F/ | G<F | 
C G | A/G/F/E/ | 
F/G/F/D/ | D<C | 

